-----BEGIN PGP PUBLIC KEY BLOCK-----

mQINBGmzLZYBEADytuZmNU4SdMtiM+jqmzATHY1+77AtBhzSOE8MjfnUf4M1ekKl
bmauclZJN2HbejF15bngCcinOoOHrxUE9wS5IOPbQHaZAqZ6cvgTZbJkYBHeAvav
ETM78bHbvr9FWYihVZzkdwUiyiLqPvpSUm1CyPk0wzOSCK9fYfyaYx1QTCHGvfYT
P97grUqppzxldQjqr4zdVaJb4AfTS/aVJFCoYBIpWAmee1MHePurLDl59tJedUBI
JNeVgMWQVDSye7vgUOmQ5rec7aYidAsoaOuoO0ucaHkx+sgMyC7nQLoqBcrLJY+F
m1G593GxcgTJItw3HW7kRZqSf0KppNj+Gi++xNTVIYEKKa1x/VRkte3uCm7Q0p3Q
oXsAQ4NMURX9RCyKn6K/8mYyqon3pZkoPSPlUGl1nV0CGfYJShErbGADDbsfZlRz
sf8aF68/7zvbxKJpB7//wtIvT9m7F+95ab1EruUvlRFwHpZkTdRu2K9FAChO9Mxl
wDYL8iMT4AgxqxWD/43lshDC9eX/uJuW9mrBZHPN7VyGNvBXGXuZ5esltzumDR04
KR0DqfyErq1C5U5EtA6XGtBp2k67t9wfpmJdQnDc5o1+/WvXMfMpu5n01QZiA2oV
WOcXUHOvHE/eV7RlxkuS9wgHv1uMpBSG+x0YpcnOISTXxfRelcc+s1nBSwARAQAB
tBpJVCBCYWNrdXAgPGFAYmxpbmtidGMuY29tPokCTgQTAQoAOBYhBBEHvXTyks0+
qwz1nUny0zU6iNNOBQJpsy2WAhsDBQsJCAcCBhUKCQgLAgQWAgMBAh4BAheAAAoJ
EEny0zU6iNNOA1kP/RjYGu0huOl0+Sl3V5z2K6nutNGB2OivaJ+cNQOK5xaTHMQB
k/L5NhsvImJyt9SV4LiXPxT3jMHYLriXwQRe4It9d8HvdXpKifh5aE8ej15hV3UD
oDE/Rs239SUrE1Ql+o6deLzRwTdDR3cP9/DIiAEVDRSB85j1xq4uA0KXRfjNXFcQ
YgmNsGIYIvB9DpGsIjmp23n9dvK4JhKIOnWE5KNlcpKcBHgn8c9dYthy94VqkhOW
9nbXEV9Jh/dqz/PpDfMNFYxmZlKX4RUVqVtp7aMXf1aiycL3/9ShKAGhxUPjloU8
5z7roFiKo7gEPd1ddc/74VMaFfrK5YgngLEN0Fo0x/8lMMUh2fC99XC/prgfN4ud
/cBwxBsyNkrzjXnclxx+3p1f3TQ9iYP93uA3J+eWsAFHfDvT2EgAjp+h46NC3yRB
WB/py8I1iCKlVetfjf/Hcq5Q+IXevYtkxz7tn+mwZqriTtxGmYFyYZrApC8/sq5R
WM3swyOdIRlnqwdH6dNDsv8nX7/lR8g6fIRiYPJAFqMiQqjHrfqO0QebvNEQmtOn
ryDvbMuyeCpZWY0gHJ/4VNs24toN+pERLlbpu+TiqO5oX9PX83J7xwfHJetm/Y9E
ImY+EuHR/Y40kl1uQxSWq0f6c0q0FTOb4QpLnDzD422J/Li/ZXIGgj8ZLtM1uQIN
BGmzLZYBEADv0W2h5QkVwv3N2r17nRFWebUAwP/4ycCWpDnII5oKv3e5Id7RkOQ5
wbWOzxBXZjMsWfxra2CFO77n8H2YoMqga1JZOXP3fyWayuEC5iH+bJyXoJSA89sd
MaKn5xVETA7Rs5wZ0kcCC32h+KyaCfoeHToFow4kdByaaFtegjJ3KoJ8xIZ0e4uy
s17Ek2ViAaPORHjFVy96N4KmGKvcx7zfRLaVBkfVDY2zgRHB9bueGKb3ZLLddcYL
yw/6iSUghXu5eLE7TwqP9GXM5SRbXT5lSqRLPmZeoJ9vmBdfCZv1GSMIujcPwOe5
xCliTjB0QvQCPGiisQ0ZFhoVU7yZCXsj1iBlFTuY0R487jWES6ZwAU4mDHq0z9vM
PuM2DvlQQ2ZQEwEJhzAZdUe0ZgZ13S9B5F26UrQDRQR3fUXXhxAWuJMlvJ0G2lJG
1SJ0XK/eHfDd8AODD91iL8suTusu5+PMI7cGojkjFqX9S7FyqFNwYJxxd1XyJ/2J
NHQKwwirWZcDs6Bqq79+I3haXFwXpmfEYc86CtBxNZjcS6D2Ss7wpWCuy4/er55b
CKrsVONYkK9rxHzzlgfC3vMVn0xn9ap+yAG+v16mDjHeiXLzCKmDsmffitQBSrA7
LMAgqy9m07RHjxlagJX04Um8jQQdlW4wn5n/NWTe9KcwbjJYEdG6HwARAQABiQI2
BBgBCgAgFiEEEQe9dPKSzT6rDPWdSfLTNTqI004FAmmzLZYCGwwACgkQSfLTNTqI
007mag/7BxBiwY6A4RvJIJE+94i9bZ0yukNKljMcNmqQZEWtztuGscFWNT76AiTS
APlTsa3jh2UY9mZe2W97OQH04ZatrIK1NU9TVcE5cim95AkgFSWqyYQMrYtQ/BoI
IP7yfmJKZ5c0NGpuxS4XLlEACBoJMIhO4cJHs9b52jQpOIvnDce09DegvhM0VW7N
T1TBElYUjGTpkSmb2jzkIwHcYYU8Iycklsr722/9ISd7Hnzr7pk5PGDZ1/lH6Oj4
8n4jcEwagSWuwEfbaSxTCuQ0TP/MmRhzPlLqSAd53hIKKdxTDanrtSb51/5h9VnC
0N3+bQXYDajcaiaH+axrylfsN1xpOlmq2Cndhd2qVNFdqm1cwPixcbeNcYXBG/H8
wmWvYWkzWdTFBG62EZm0BatorhoBPq3/4bPC4cvkBBgpQekBDyU67D9Tvstt0+MH
W75tY2Zv7wGcsn+Wf0L3GNUP0LbMOuuCGwYwstz4tIbhzgpR7pyfqclPS2Yzx5UT
2cc71b76/n9vqkhG2tZnLUuWegBvJQz7MYk3Rcfv6IlZm/lwM8S/gpnqSZazJnnd
GV/XcpiinhbWAeiNZgyewqtuurWmdtXJ4ZmGmcSDk1th+/0pYwlikzOEQrjjsgio
N9Ohmzn/5A4j/a1o7sw5dPeDHoz7L54tqhVlTQfw6LNhZUuFARM=
=pT6d
-----END PGP PUBLIC KEY BLOCK-----
